!!!COM: Anon.
!!!OTL: El Rorro
!! Maria Cadilla de Martinez,
!! Juegos Y Canciones Infantiles de Puerto Rico
!! Talleres Graficos, Cas Baldrich, Brau 93, San Juan, P.R.
!! 1940.  Derechos reservados de la Autora
!! page 166
!! Andante
**kern
*clefG2
*k[]
*M2/4
8e
=
4a
8g#
8b
=
4a
8r
8e
=
4a
8g#
8b
=
4a
8r
8e
=
4a
8.g#
16b
=
4a
8.g
16f#
=
8.g
16f#
8.g
16f#
=
8.g
16f#
8.g
16fn
=
4e
4d
=
4.e
8d
=
4.e;
==
*-
